assets/svg/person_add.svg

<!-- Generated by IcoMoon.io -->
<svg version="1.1" xmlns="http://www.w3.org/2000/svg" width="24" height="24" viewBox="0 0 24 24">
<title>person_add</title>
<path d="M15 14.016q2.531 0 5.273 1.102t2.742 2.883v2.016h-16.031v-2.016q0-1.781 2.742-2.883t5.273-1.102zM6 9.984h3v2.016h-3v3h-2.016v-3h-3v-2.016h3v-3h2.016v3zM15 12q-1.641 0-2.813-1.172t-1.172-2.813 1.172-2.836 2.813-1.195 2.813 1.195 1.172 2.836-1.172 2.813-2.813 1.172z"></path>
</svg>

<svg xmlns="http://www.w3.org/2000/svg" viewBox="0 0 24 24"><path d="M15 14.016q2.531 0 5.273 1.102t2.742 2.883v2.016H6.984v-2.016q0-1.781 2.742-2.883t5.273-1.102zM6 9.984h3V12H6v3H3.984v-3h-3V9.984h3v-3H6v3zM15 12q-1.641 0-2.813-1.172t-1.172-2.813 1.172-2.836T15 3.984t2.813 1.195 1.172 2.836-1.172 2.813T15 12z"/></svg>
